X: 1
T: Pipe on theHob #2
S: Johnny Adams <j.adams:salford.ac.uk tradtunes 2001-04-20
M:6/8
L:1/8
%Q:110
Z:C.G.P
K:G
|:d3A2G|F2DD3|EDE cAG|FADD3|dcB cBA|BAGA2G|!EDE cAG|FADD3:|
|f2d d^cd|f2d d^cd|e2c cBc|e2f gfe|f2d d^cd|f2d d^cd|ede eag|fd^cd3|
|f2d d^cd|f2d d^cd|e2c cBc|e2f gfe|fef gfg|agf efg|eee eag|fd^c d3|
